symbols/web/cameraswitch/materialsymbolsoutlined/cameraswitch_wght300gradN25fill1_24px.svg

<svg xmlns="http://www.w3.org/2000/svg" height="24" width="24"><path d="M8.35 16.35q-.7 0-1.2-.5t-.5-1.2V9.325q0-.7.5-1.2t1.2-.5h.9l.95-.95h3.625l.95.95h.875q.7 0 1.2.5t.5 1.2v5.325q0 .7-.5 1.2t-1.2.5ZM12 13.6q.675 0 1.138-.463.462-.462.462-1.137t-.462-1.138Q12.675 10.4 12 10.4q-.675 0-1.137.462-.463.463-.463 1.138 0 .675.463 1.137.462.463 1.137.463ZM9.4 1.025q.625-.175 1.275-.238.65-.062 1.3-.062 2.2 0 4.163.775 1.962.775 3.487 2.162 1.525 1.388 2.488 3.276.962 1.887 1.162 4.062h-1.4Q21.7 9.175 20.9 7.6t-2.063-2.763q-1.262-1.187-2.887-1.9-1.625-.712-3.475-.787l1.75 1.75-.975 1Zm5.2 21.925q-.625.2-1.275.262-.65.063-1.3.063-2.2 0-4.162-.788Q5.9 21.7 4.375 20.312 2.85 18.925 1.888 17.05.925 15.175.725 12.975h1.4q.2 1.825.988 3.4.787 1.575 2.05 2.775 1.262 1.2 2.899 1.9 1.638.7 3.463.8l-1.75-1.775.975-.975Z"/></svg>

<svg xmlns="http://www.w3.org/2000/svg" height="24" width="24"><path d="M8.35 16.35Q7.65 16.35 7.15 15.85Q6.65 15.35 6.65 14.65V9.325Q6.65 8.625 7.15 8.125Q7.65 7.625 8.35 7.625H9.25L10.2 6.675H13.825L14.775 7.625H15.65Q16.35 7.625 16.85 8.125Q17.35 8.625 17.35 9.325V14.65Q17.35 15.35 16.85 15.85Q16.35 16.35 15.65 16.35ZM12 13.6Q12.675 13.6 13.138 13.137Q13.6 12.675 13.6 12Q13.6 11.325 13.138 10.862Q12.675 10.4 12 10.4Q11.325 10.4 10.863 10.862Q10.4 11.325 10.4 12Q10.4 12.675 10.863 13.137Q11.325 13.6 12 13.6ZM9.4 1.025Q10.025 0.85 10.675 0.787Q11.325 0.725 11.975 0.725Q14.175 0.725 16.138 1.5Q18.1 2.275 19.625 3.662Q21.15 5.05 22.113 6.938Q23.075 8.825 23.275 11H21.875Q21.7 9.175 20.9 7.6Q20.1 6.025 18.837 4.837Q17.575 3.65 15.95 2.937Q14.325 2.225 12.475 2.15L14.225 3.9L13.25 4.9ZM14.6 22.95Q13.975 23.15 13.325 23.212Q12.675 23.275 12.025 23.275Q9.825 23.275 7.863 22.487Q5.9 21.7 4.375 20.312Q2.85 18.925 1.888 17.05Q0.925 15.175 0.725 12.975H2.125Q2.325 14.8 3.113 16.375Q3.9 17.95 5.163 19.15Q6.425 20.35 8.062 21.05Q9.7 21.75 11.525 21.85L9.775 20.075L10.75 19.1Z"/></svg>
